X:8299
T:Can't Stop Polka
C:anon.
O:England
S:Rod Stradling
R:Polka
F:http://abc.musicaviva.com/tunes/england/cant-stop-polka/cant-stop-polka-1.abc
%Posted April 16th 2002 at abcusers by Phil Headford
M:4/4
L:1/8
Q:1/4=180
K:D
F2A2GAB2|A2def4|G2ede4|FAdcd4|\
F2A2GAB2|A2def4|g2e2cdec|d2f2d4:|
d2c2G3A|B2A2F3D|CDEFG2B2|B2A2d3d/e/|\
d2c2G3A|B2A2F3D|CDEF GABc|d2f2d3d/d/:|
A2d2c2B2|A2F2FEF2|G2E2EDE2|FAdcd3A/A/|\
A2d2c2B2|A2F2FEF2|G2E2EGFE|D2F2D4:|
W:
W:
W:  From Musica Viva - http://www.musicaviva.com
W:  the Internet center for free sheet music downloads.
